storage/app/icons/phosphoricons/duotone/calendar-heart-duotone.svg

<svg xmlns="http://www.w3.org/2000/svg" viewBox="0 0 256 256" fill="currentColor"><path d="M176,120c0,32-48,56-48,56s-48-24-48-56a24,24,0,0,1,48,0,24,24,0,0,1,48,0Z" opacity="0.2"/><path d="M208,32H184V24a8,8,0,0,0-16,0v8H88V24a8,8,0,0,0-16,0v8H48A16,16,0,0,0,32,48V208a16,16,0,0,0,16,16H208a16,16,0,0,0,16-16V48A16,16,0,0,0,208,32Zm0,176H48V48H72v8a8,8,0,0,0,16,0V48h80v8a8,8,0,0,0,16,0V48h24V208ZM152,88a31.91,31.91,0,0,0-24,10.86A32,32,0,0,0,72,120c0,36.52,50.28,62.08,52.42,63.16a8,8,0,0,0,7.16,0C133.72,182.08,184,156.52,184,120A32,32,0,0,0,152,88Zm-24,78.93c-13.79-7.79-40-26.75-40-46.93a16,16,0,0,1,32,0,8,8,0,0,0,16,0,16,16,0,0,1,32,0C168,140.19,141.79,159.15,128,166.93Z"/></svg>

<svg xmlns="http://www.w3.org/2000/svg" fill="currentColor" viewBox="0 0 256 256"><path d="M176 120c0 32-48 56-48 56s-48-24-48-56a24 24 0 0 1 48 0 24 24 0 0 1 48 0" opacity=".2"/><path d="M208 32h-24v-8a8 8 0 0 0-16 0v8H88v-8a8 8 0 0 0-16 0v8H48a16 16 0 0 0-16 16v160a16 16 0 0 0 16 16h160a16 16 0 0 0 16-16V48a16 16 0 0 0-16-16m0 176H48V48h24v8a8 8 0 0 0 16 0v-8h80v8a8 8 0 0 0 16 0v-8h24zM152 88a31.9 31.9 0 0 0-24 10.86A32 32 0 0 0 72 120c0 36.52 50.28 62.08 52.42 63.16a8 8 0 0 0 7.16 0C133.72 182.08 184 156.52 184 120a32 32 0 0 0-32-32m-24 78.93c-13.79-7.79-40-26.75-40-46.93a16 16 0 0 1 32 0 8 8 0 0 0 16 0 16 16 0 0 1 32 0c0 20.19-26.21 39.15-40 46.93"/></svg>
